dist/assets/img/main/deal/2.svg

<svg width="312" height="354" viewBox="0 0 312 354" fill="none" xmlns="http://www.w3.org/2000/svg">
<path d="M267.014 166C267.014 198.987 267.068 231.475 266.938 263.962C266.923 267.563 267.861 270.128 270.48 272.679C284.187 286.031 297.702 299.58 311.201 312.979C297.954 326.267 285.063 339.196 271.955 352.344C270.713 351.256 269.258 349.981 267.329 348.291C267.109 350.188 266.933 351.702 266.746 353.317C178.169 353.317 89.7776 353.317 0.985581 353.317C0.985581 351.238 0.985585 349.436 0.985585 347.635C0.985589 244.842 1.02671 142.048 0.86332 39.255C0.855202 34.1507 2.11811 32.8764 7.20107 32.9218C36.3541 33.182 65.5109 32.9915 94.6657 33.1139C98.7165 33.1309 100.342 32.5689 101.202 27.7155C104.345 9.98925 120.733 0.199386 132.923 0.640508C151.667 1.31875 164.055 11.2744 167.024 29.9852C167.594 33.5786 169.827 33.0423 172.099 33.0431C195.09 33.0516 218.081 33.0483 241.073 33.0484C248.07 33.0484 255.078 33.2794 262.06 32.9597C266.097 32.7749 267.111 34.1081 267.098 38.0498C266.963 80.5328 267.014 123.016 267.014 166ZM210.412 291.086C202.213 283.119 194.014 275.152 185.719 267.092C188.735 263.933 190.989 261.571 192.6 259.883C187.015 254.109 181.759 248.676 176.423 243.16C159.941 253.243 141.88 256.948 122.726 253.672C82.1701 246.734 52.9221 208.429 58.7989 166.11C64.0647 128.192 99.892 95.9967 141.567 99.9753C174.157 103.087 196.439 120.292 208.275 150.374C216.961 172.451 214.648 194.298 203.273 215.183C202.487 216.626 201.991 219.408 202.79 220.337C207.291 225.567 212.229 230.419 217.051 235.435C220.244 232.379 222.739 229.991 225.214 227.623C227.56 229.68 229.585 231.455 232.012 233.584C232.012 177.836 232.012 122.965 232.012 68.0267C221.526 68.0267 211.441 68.0267 201.133 68.0267C201.06 69.0886 200.988 69.8876 200.952 70.6883C200.432 82.26 193.194 89.6488 181.626 89.6986C149.799 89.8358 117.97 89.835 86.143 89.6938C76.0428 89.649 69.2026 83.6893 67.268 73.9327C66.8925 72.0387 66.9517 70.0586 66.8136 68.1627C56.2516 68.1627 46.0376 68.1627 35.9162 68.1627C35.9162 152.163 35.9162 235.746 35.9162 319.53C101.474 319.53 166.706 319.53 231.899 319.53C233.055 315.568 232.298 312.689 229.322 309.914C222.993 304.011 217.021 297.725 210.412 291.086ZM13.5838 327.496C13.5838 332.106 13.5838 336.717 13.5838 341.46C94.2348 341.46 174.257 341.46 254.263 341.46C256.598 333.069 248.989 331.187 245.401 326.344C245.954 331.75 243.12 332.158 239.056 332.152C169.079 332.049 99.1012 332.034 29.1242 332.176C24.4767 332.186 22.9367 331.17 22.9454 326.217C23.0995 237.746 23.0928 149.275 22.9565 60.8035C22.9494 56.1884 24.1558 54.8308 28.7993 54.9482C41.4032 55.2668 54.0205 55.0575 66.7147 55.0575C66.7147 51.6433 66.7147 48.7537 66.7147 45.906C48.951 45.906 31.5317 45.906 13.5834 45.906C13.5834 139.65 13.5834 233.073 13.5838 327.496ZM196.059 202.517C206.294 179.246 200.873 149.428 182.953 131.375C168.887 117.204 151.911 110.673 131.827 111.654C114.687 112.492 100.011 118.958 88.3854 131.091C73.2764 146.86 67.2075 166.131 70.8397 187.851C77.0626 225.064 111.314 247.803 147.727 241.512C159.046 239.557 169.028 234.521 179.113 226.9C186.687 234.859 194.187 242.74 201.251 250.164C204.115 247.486 206.485 245.269 209.642 242.317C201.753 234.808 193.946 227.376 186.373 220.167C189.766 214.191 192.864 208.736 196.059 202.517ZM280.42 327.921C285.202 323.318 289.985 318.716 294.501 314.371C270.984 290.796 248.011 267.765 225.617 245.315C218.279 252.603 210.779 260.052 203.6 267.182C225.954 290.193 248.533 313.434 271.432 337.006C274.809 333.574 277.355 330.988 280.42 327.921ZM244.933 93.4999C244.933 142.656 245.112 191.814 244.75 240.968C244.692 248.773 249.706 251.525 254.41 256.178C254.41 185.472 254.41 115.744 254.41 45.7276C236.522 45.7276 218.944 45.7276 201.217 45.7276C201.217 48.8751 201.217 51.7796 201.217 55.0667C214.46 55.0667 227.424 55.1649 240.386 55.0009C243.82 54.9574 245.071 55.9265 245.006 59.5081C244.806 70.5021 244.933 81.5022 244.933 93.4999ZM117.864 19.4388C111.948 25.6437 112.509 33.4166 112.807 41.0419C112.941 44.4804 111.869 46.0021 108.3 45.6323C106.246 45.4195 104.152 45.5937 102.031 45.5937C102.031 49.1321 102.031 51.8759 102.031 54.7468C123.508 54.7468 144.704 54.7468 166.249 54.7468C166.249 52.9804 166.293 51.5068 166.237 50.0371C166.182 48.6197 166.025 47.2063 165.92 45.8751C155.251 45.0606 155.026 45.054 155.312 35.286C155.607 25.1638 151.548 17.6261 142.21 13.9942C133.577 10.6363 125.233 12.0212 117.864 19.4388ZM109.5 77.1341C115.331 77.1341 121.163 77.1341 126.994 77.1341C145.489 77.1339 163.983 77.1204 182.477 77.1487C185.102 77.1527 188.029 77.1439 188.116 73.7886C188.357 64.5241 188.199 55.2493 188.199 45.8869C184.822 45.8869 182.081 45.8869 178.865 45.8869C178.865 51.6277 178.605 57.1058 178.948 62.5461C179.218 66.8461 177.551 67.8542 173.508 67.8306C147.184 67.6772 120.858 67.6415 94.5342 67.8558C89.9195 67.8934 88.8232 66.2597 89.0587 62.0598C89.3618 56.6568 89.1325 51.2239 89.1325 45.9827C85.5806 45.9827 82.8386 45.9827 79.7593 45.9827C79.7593 55.1701 79.7599 63.9755 79.759 72.7809C79.7586 76.3432 81.8802 77.1963 85.0072 77.1618C92.8372 77.0756 100.669 77.1339 109.5 77.1341Z" fill="#0769CD"/>
<path d="M124 264.717C133.657 264.717 142.817 264.856 151.969 264.648C155.517 264.568 157.056 265.366 156.927 269.304C156.627 278.479 157.361 276.963 149.089 276.979C123.45 277.029 97.8085 276.857 72.1715 277.119C67.2003 277.17 66.8279 274.992 67.0019 271.144C67.1617 267.612 66.2934 264.445 72.0574 264.577C89.197 264.97 106.351 264.718 124 264.717Z" fill="#0769CD"/>
<path d="M136 298.998C114.369 298.997 93.2351 298.789 72.11 299.136C66.4217 299.229 67.131 296.187 66.9987 292.593C66.8582 288.778 67.1498 286.55 72.1415 286.598C98.5941 286.853 125.053 286.919 151.503 286.565C157.503 286.485 156.673 289.664 156.931 293.412C157.224 297.665 156.088 299.48 151.466 299.092C146.51 298.674 141.491 298.998 136 298.998Z" fill="#0769CD"/>
<path d="M156.995 125.862C182.594 137.843 195.28 162.288 189.886 188.74C185.237 211.542 164.844 229.638 141.972 232.256C110.704 235.835 83.6801 213.107 80.3201 183.897C76.711 152.521 98.6209 126.313 128.058 121.958C138.023 120.484 147.419 122.16 156.995 125.862ZM159.812 213.39C174.18 203.452 180.607 189.699 178.789 172.406C175.392 140.106 142.189 124.974 115.285 138.366C92.7459 149.587 85.4473 177.566 98.2771 199.988C110.011 220.493 138.501 226.953 159.812 213.39Z" fill="#0769CD"/>
<path d="M152.893 159.902C154.986 157.748 156.815 155.835 158.872 153.684C161.962 156.408 164.749 158.865 167.722 161.485C153.74 175.955 140.035 190.138 126.362 204.288C119.678 197.545 113.283 191.092 106.563 184.312C109.22 182.155 112.023 179.878 115.329 177.193C118.176 180.326 121.702 184.208 125.507 188.395C134.992 178.516 143.811 169.329 152.893 159.902Z" fill="#0769CD"/>
</svg>

<svg width="312" height="354" fill="none" xmlns="http://www.w3.org/2000/svg"><path d="M267.014 166c0 32.987.054 65.475-.076 97.962-.015 3.601.923 6.166 3.542 8.717 13.707 13.352 27.222 26.901 40.721 40.3l-39.246 39.365-4.626-4.053-.583 5.026H.986v-5.682c0-102.793.04-205.587-.123-308.38-.008-5.104 1.255-6.379 6.338-6.333 29.153.26 58.31.07 87.465.192 4.05.017 5.676-.545 6.536-5.398C104.345 9.988 120.733.198 132.923.64c18.744.678 31.132 10.633 34.101 29.344.57 3.594 2.803 3.057 5.075 3.058 22.991.009 45.982.005 68.974.005 6.997 0 14.005.231 20.987-.088 4.037-.185 5.051 1.148 5.038 5.09-.135 42.483-.084 84.966-.084 127.95zm-56.602 125.086l-24.693-23.994 6.881-7.209-16.177-16.723c-16.482 10.083-34.543 13.788-53.697 10.512-40.556-6.938-69.804-45.243-63.927-87.562 5.266-37.918 41.093-70.113 82.768-66.135 32.59 3.112 54.872 20.317 66.708 50.399 8.686 22.077 6.373 43.924-5.002 64.809-.786 1.443-1.282 4.225-.483 5.154 4.501 5.23 9.439 10.082 14.261 15.098l8.163-7.812 6.798 5.961V68.027h-30.879c-.073 1.062-.145 1.86-.181 2.661-.52 11.572-7.758 18.96-19.326 19.01-31.827.138-63.656.137-95.483-.004-10.1-.045-16.94-6.005-18.875-15.761-.376-1.894-.316-3.874-.454-5.77H35.916V319.53H231.9c1.156-3.962.399-6.841-2.577-9.616-6.329-5.903-12.301-12.189-18.91-18.828zm-196.828 36.41v13.964h240.679c2.335-8.391-5.274-10.273-8.862-15.116.553 5.406-2.281 5.814-6.345 5.808-69.977-.103-139.955-.118-209.932.024-4.647.01-6.187-1.006-6.179-5.959.154-88.471.148-176.942.011-265.413-.007-4.616 1.2-5.973 5.843-5.856 12.604.319 25.221.11 37.916.11v-9.152H13.583v281.59zm182.475-124.979c10.235-23.271 4.814-53.089-13.106-71.142-14.066-14.171-31.042-20.702-51.126-19.721-17.14.838-31.816 7.304-43.442 19.437-15.109 15.769-21.178 35.04-17.545 56.76 6.223 37.213 40.474 59.952 76.887 53.661 11.319-1.955 21.301-6.991 31.386-14.612l22.138 23.264 8.391-7.847-23.269-22.15c3.393-5.976 6.491-11.431 9.686-17.65zm84.361 125.404l14.081-13.55-68.884-69.056-22.017 21.867 67.832 69.824c3.377-3.432 5.923-6.018 8.988-9.085zM244.933 93.5c0 49.156.179 98.314-.183 147.468-.058 7.805 4.956 10.557 9.66 15.21V45.728h-53.193v9.339c13.243 0 26.207.098 39.169-.066 3.434-.044 4.685.925 4.62 4.507-.2 10.994-.073 21.994-.073 33.992zM117.864 19.439c-5.916 6.205-5.355 13.978-5.057 21.603.134 3.438-.938 4.96-4.507 4.59-2.054-.212-4.148-.038-6.269-.038v9.153h64.218c0-1.767.044-3.24-.012-4.71-.055-1.417-.212-2.83-.317-4.162-10.669-.814-10.894-.821-10.608-10.589.295-10.122-3.764-17.66-13.102-21.292-8.633-3.358-16.977-1.973-24.346 5.445zM109.5 77.134h17.494c18.495 0 36.989-.014 55.483.015 2.625.004 5.552-.005 5.639-3.36.241-9.265.083-18.54.083-27.902h-9.334c0 5.74-.26 11.219.083 16.66.27 4.3-1.397 5.307-5.44 5.284-26.324-.154-52.65-.19-78.974.025-4.615.037-5.71-1.596-5.475-5.796.303-5.403.073-10.836.073-16.077H79.76V72.78c0 3.562 2.121 4.415 5.248 4.38 7.83-.085 15.662-.027 24.493-.027z" fill="#0769CD"/><path d="M124 264.717c9.657 0 18.817.139 27.969-.069 3.548-.08 5.087.718 4.958 4.656-.3 9.175.434 7.659-7.838 7.675-25.639.05-51.28-.122-76.918.14-4.97.051-5.343-2.127-5.17-5.975.16-3.532-.708-6.699 5.056-6.567 17.14.393 34.294.141 51.943.14zm12 34.281c-21.631-.001-42.765-.209-63.89.138-5.688.093-4.979-2.949-5.111-6.543-.14-3.815.15-6.043 5.142-5.995 26.453.255 52.912.321 79.362-.033 6-.08 5.17 3.099 5.428 6.847.293 4.253-.843 6.068-5.465 5.68-4.956-.418-9.975-.094-15.466-.094zm20.995-173.136c25.599 11.981 38.285 36.426 32.891 62.878-4.649 22.802-25.042 40.898-47.914 43.516-31.268 3.579-58.292-19.149-61.652-48.359-3.609-31.376 18.3-57.584 47.738-61.939 9.965-1.474 19.361.202 28.937 3.904zm2.817 87.528c14.368-9.938 20.795-23.691 18.977-40.984-3.397-32.3-36.6-47.432-63.504-34.04-22.54 11.221-29.838 39.2-17.008 61.622 11.734 20.505 40.224 26.965 61.535 13.402z" fill="#0769CD"/><path d="M152.893 159.902c2.093-2.154 3.922-4.067 5.979-6.218l8.85 7.801-41.36 42.803-19.799-19.976 8.766-7.119 10.178 11.202c9.485-9.879 18.304-19.066 27.386-28.493z" fill="#0769CD"/></svg>
